Papirus/24x24/status/image-missing.svg

<svg xmlns="http://www.w3.org/2000/svg" width="24" height="24" version="1">
 <path fill="#e4e4e4" d="m3 3c-0.554 0-1 0.446-1 1v16c0 0.554 0.446 1 1 1h11l8-8v-9c0-0.554-0.446-1-1-1z"/>
 <path d="m7.6084 10 4.3916 6l3-3 3 2.0766-0.53014 0.47131-1.9243 2.4522h-11.546v-4z" style="opacity:0.3"/>
 <path d="m22 13h-7c-0.5523 0-1 0.44772-1 1v7z" style="fill:#fafafa"/>
 <path fill="#fff" d="m15 13c-0.5523 0-1 0.44772-1 1v0.5c0-0.5523 0.44771-1 1-1h6.5l0.5-0.5h-7z" style="opacity:0.2"/>
 <path opacity=".3" d="m22 12.978-8 8h-11c-0.554 0-1-0.446-1-1v0.5225c0 0.554 0.446 1 1 1h11l8-8v-0.522z"/>
 <path style="fill:#ffffff;opacity:0.2" d="M 3 3 C 2.446 3 2 3.446 2 4 L 2 4.5 C 2 3.946 2.446 3.5 3 3.5 L 21 3.5 C 21.554 3.5 22 3.946 22 4.5 L 22 4 C 22 3.446 21.554 3 21 3 L 3 3 z"/>
</svg>

<svg xmlns="http://www.w3.org/2000/svg" width="24" height="24" version="1">
 <path style="opacity:0.2" d="M 3,3.5 C 2.446,3.5 2,3.946 2,4.5 V 20.5 C 2,21.054 2.446,21.5 3,21.5 H 14 L 22,13.5 V 4.5 C 22,3.946 21.554,3.5 21,3.5 Z"/>
 <path style="fill:#e4e4e4" d="M 3,3 C 2.446,3 2,3.446 2,4 V 20 C 2,20.554 2.446,21 3,21 H 14 L 22,13 V 4 C 22,3.446 21.554,3 21,3 Z"/>
 <path style="opacity:0.3" d="M 7.6084,10 12,16 15,13 18,15.077 17.47,15.548 15.546,18 H 3.9996 V 14 Z"/>
 <path style="fill:#fafafa" d="M 22,13 H 15 C 14.448,13 14,13.448 14,14 V 21 Z"/>
 <path style="opacity:0.2;fill:#ffffff" d="M 15,13 C 14.448,13 14,13.448 14,14 V 14.5 C 14,13.948 14.448,13.5 15,13.5 H 21.5 L 22,13 Z"/>
 <path style="opacity:0.2;fill:#ffffff" d="M 3,3 C 2.446,3 2,3.446 2,4 V 4.5 C 2,3.946 2.446,3.5 3,3.5 H 21 C 21.554,3.5 22,3.946 22,4.5 V 4 C 22,3.446 21.554,3 21,3 Z"/>
</svg>
